X: 36
T:Honley() at() Cricketers,The. JBa.35
M:C|
L:1/8
Q:120
S:Joseph Barnes MS,Carlisle,1762.
R:reel
O:England
A:Carlisle
N:Very difficult to make sense o f the title,except that Cricketers is
N:certainly right..CGP
Z:vmp.C.Graebe.
K:D Major
d2 | AFDF AFDB | AFde d2 (E/F/G) |\
 AFdF AFDf | e>d ef d/d/d d2 :|!
|:(d/e/f) afbg af | f>ed>f (e/e/e) ef |\
  (d/e/f) afbg af | ed ef d/d/d d2:|]
